X:1
T:The STORM WALTZ
T:The STORM WALTZ
T:Mozart.
C:Mozart.
L:1/8
M:3/4
K:C
V:1 treble 
V:1
|: C2 C2 C2 |"^>" C2 _ED E2 | C2 C2 C2 |"^>" C2 cB c2 | C2 C2 C2 |"^>" C2 _EDEC | =B,2 G2 G2 | %7
 G4 z2 :: G6 | G2 e2 c2 | c2 B2 B2 | B6 | dcBcde | fgfd B2 | c2 c'2 c'2 | b6 :: c'bc'gaf | %17
 g^fga=fg | e2 e2 a2 | fgeg f2 | d^cdcd^d | e^dedeg | fefdBd | c4 z2 :| E2{^d} e2{d} e2 | %25
 D2{^d} e2{d} e2 | =dcBA^GA | ^G2 BG E2 | E2{^d} e2{d} e2 | D2{^d} e2{d} e2 | =dcBA^GB | A4 z2 :: %32
"^Dolce." e4 d2 | c4 G2 | A2 AB{d} cB/A/ | A4 G2 | g2 z3/2 g<ff/ | e2 z3/2 e<dd/ | c2 d2 B2 | %39
 [Ec]4 z2 :| %40

